X:1
T:Earl's Chair, The
L:1/8
M:2/2
I:linebreak $
K:Bmin
V:1 treble 
V:1
 B2 dB BAFA | B2 dB BAFB | AF F2 DF F2 | A2 dA BAFA | B2 dB BAFA | B2 dB BAFB |$ AFAB defd |1 %7
 e2 ef d3 A :|2 e2 ef d3 f |: e3 f d2 df | e3 f dB A2 | e3 f d2 de |$ fedB ADFA | e3 f eB B2 | %14
 gB B2 defg | afbf afeg | fedB ADFA :| %17
